!!!OTL: Graf und Nonne (Die Nonne) Ich stand auf hohem Berge
!!!ARE: Europa, Osteuropa, Tschechoslowakei, Sudetenland, Zips
!!!ARD1: Europa%Osteuropa%Deutschland@Sudetenland#Zips:?
!!!ARL1: 49.78/11.58:?
!!!ARD2: Europa%Osteuropa%Ceska Republika@Sudetenland#
!!!ARL2: 49.75/15.00#
!!!YOR: 8, S. 287
!!    1924 gedruckt
!!!SCT: Q01556
!!!YEM: Copyright 1995, estate of Helmut Schaffrath.
**kern
*ICvox
*Ivox
*M6/8
*k[b-e-]
*g:
{8d
=1
4b-
8b-
4a
8a
=2
4.g
4fn}
{8fn
=3
4b-
8b-
4cc
8cc
=4
4.dd
4r}
{8dd
=5
4gg
8dd
4ee-
8cc
=6
4.dd
4g}
{8a
=7
8b-
8b-
8b-
4a
8a
=8
4.g
4r}
{8a
=9
8b-
8b-
8b-
4a
8a
=10
4.g
4r}
==
!!!AGN: Ballade, Standesunterschied, vergebliche Werbung, Liebe, Klage
!!!ONB: ESAC (Essen Associative Code) Database: BALLADE
!!!AMT: compound duple
!!!AIN: vox
!!!EED: Helmut Schaffrath
!!!EEV: 1.0
*-
!!!title: @{OTL} [@{SCT}]
